package/converter/svg/thin/arrow-down-left.svg

<svg xmlns="http://www.w3.org/2000/svg" viewBox="0 0 384 512"><!-- Font Awesome Pro 6.0.0-alpha2 by @fontawesome - https://fontawesome.com License - https://fontawesome.com/license (Commercial License) --><path d="M39.999 160C44.419 160 47.998 163.58 47.998 167.999V388.688L338.345 98.341C341.461 95.225 346.532 95.214 349.659 98.341S352.775 106.539 349.659 109.655L59.312 400.002H280.001C284.42 400.002 288 403.581 288 408.001S284.42 416 280.001 416H39.999C35.58 416 32 412.42 32 408.001V167.999C32 163.577 35.577 160 39.999 160Z"/></svg>

<svg xmlns="http://www.w3.org/2000/svg" viewBox="0 0 384 512"><!--! Font Awesome Pro 6.6.0 by @fontawesome - https://fontawesome.com License - https://fontawesome.com/license (Commercial License) Copyright 2024 Fonticons, Inc. --><path d="M40 416c-4.4 0-8-3.6-8-8l0-240c0-4.4 3.6-8 8-8s8 3.6 8 8l0 220.7L338.3 98.3c3.1-3.1 8.2-3.1 11.3 0s3.1 8.2 0 11.3L59.3 400 280 400c4.4 0 8 3.6 8 8s-3.6 8-8 8L40 416z"/></svg>
